X: 3360
T: Ben Kenneth, The
R: reel
M: 4/4
K: Dmajor
|:d2fa afeg|fddd edBA|ddde fedf|edB2 egfe|
d2fa afeg|fddd edBA|d2fd egfe|dBAB d2dc:|
|:dBBA A2ef|gfed fedB|dBBA A2ef|afef d2dc|
dBBA A2ef|gfed fedB|dBBA A2ef|afef d2dc:|

